X:16
T: Eine arme Seel wollt wanderen gehn (Band 1), S. 53
N: P0790
O: Lothringen
S: PINCK, Louis: Verklingende Weisen, Bd 1, Metz 1928]
R: geistliche, religiöse Lieder]
M: 3/4
L: 1/16
K: E
B,B,E2F2 | =G6A2F2GG | E4z2
=D2=G2A2 | B6A2B2=G2 | F4z2
E2=G2AA | B6B2=G2B2 | A6
B2=G2F2 | E4=G2F2E2D2 | E4z2

